!!!OTL: Der Sachsen Vaterland.
!!!OTL-incipit:ICH KENN EIN WUNDERSCHOENES LAND
!!!COM: H. Doerrjen
!!!ARE: Europa, Mitteleuropa, Deutschland
!!!SCT: F0428
!!!TXL: @@DE
!!!YEM: Copyright 1995, estate of Helmut Schaffrath.
**kern	**text
*ICvox	*
*I"Tenor I.	*
*clefG2	*
*M4/4	*
*met(c)	*
*k[f#c#g#d#]	*
*E:	*
!LO:TX:a:t=Solo.	!
!LO:TX:a:t=Feſt.	!
!LO:TX:a:t=P:only the highest voice encoded:problem	!
{4b/	1._Jch
=1	=1
4.ee	kenn'
8ee	ein
4ff#	wun-
4gg#	-der-
=2	=2
4.gg#	-ſchö-
8ff#	-nes
4ee}	Land,
{4ee	es
=3	=3
4cc#	liegt
4dd#	am
(>4ee/	hei-
8gg#/)	-tern
8ff#/	.
=4	=4
8eeqq	.
4.dd#	El-
8cc#/	-be-
4b/}	-ſtrand,
{4b/	es
=5	=5
4.ee/	ſchmücken
8ee/	.
4dd#/	Gott
4cc#/	und
=6	=6
4.b/	die
8a	Na-
4g#}	-tur
{4a#	mit
=7	=7
2b/	Pa-
2cc#/	-ra-
=8	=8
2.dd#/	-dies-
8ff#/L	-reiʒ
8eeJ	.
=9	=9
2dd#/	ſei-
2cc#/	-ne
=10	=10
2b/	Flur,
4r}	.
{4b/	und
=11	=11
4.dd/	ſtreuen
8dd/	.
4cc#/	ü-
4b/	-ber
=12	=12
4.a	Berg
8b/	und
4cc#/}	Thal
{4ff#/	die
=13	=13
4.dd#/	Fül-
8dd#/	-le
4ee/	Se-
4cc#/	-gens
=14	=14
4.b/	ü-
8a	-ber-
4g#	-all!
8r}	.
{8b/	Glück
=15	=15
4ee^^	auf!
8r	.
8ee	Glück
4ff#^^	auf!
8r	.
8ff#	Glück
=16	=16
2.gg#^^	auf.
8r}	.
!LO:TX:a:t=Alle.	!
{8ee	Glück
=17	=17
4aa	auf,
4gg#	Glück
4ff#	auf!
4ee	das
=18	=18
2dd#	ſchö-
2ee	-ne
=19	=19
2ff#	Land,
8r}	.
{8dd#	es
8ee	iſt
8ff#	der
=20	=20
2.gg#/	Sach-
4ff#/	-ſen
=21	=21
2.ee/	Va-
4dd#/	-ter-
=22	=22
4ee/}	-land,
{4ee	es
4ff#	iſt
4gg#	der
=23	=23
2.aa	Sach-
4ff#	-ſen
=24	=24
2ee	Va
2dd#	ter-
=25	=25
2ee	-land!
4r}	.
==	==
!!!AGN: Vaterlands -, Heimat - Lied, nationalistisch; Sachsen - Lied
!!!ONB: ESAC (Essen Associative Code) Database: FINK
!!!AMT: simple quadruple
!!!AIN: vox
!!!EED: Helmut Schaffrath
!!!EEV: 1.0
!!!RDF**kern: > = above
!!Text: S. A. Mahlmann
!!!GTL: Vaterlands- und Heimathslieder
!!!source: Musikalischer Hausschatz der Deutschen. Eine Sammlung von über 1000 Liedern und Gesängen mit Singstimmen und Klavierbegleitung. Leipzig, Litterarisches Verlags-Haus.
!!!page: 264
!!!URL-scan: https://www.digitale-sammlungen.de/en/view/bsb11144622?page=254,255
!!!ENC: Anna Maria Matuszewska
!!!EEV: 2024/07/31
*-	*-
